packages/sources/assets/src/assets/flag-dk.svg

<svg width="28" height="20" viewBox="0 0 28 20" fill="none" xmlns="http://www.w3.org/2000/svg">
<rect x="0.25" y="0.25" width="27.5" height="19.5" rx="1.75" fill="white" stroke="#F5F5F5" stroke-width="0.5"/>
<mask id="mask0_503_2632" style="mask-type:alpha" maskUnits="userSpaceOnUse" x="0" y="0" width="28" height="20">
<rect x="0.25" y="0.25" width="27.5" height="19.5" rx="1.75" fill="white" stroke="white" stroke-width="0.5"/>
</mask>
<g mask="url(#mask0_503_2632)">
<path fill-rule="evenodd" clip-rule="evenodd" d="M2 0C0.895431 0 0 0.895431 0 2V8H8V0H2ZM12 0V8H28V2C28 0.895431 27.1046 0 26 0H12ZM28 12H12V20H26C27.1046 20 28 19.1046 28 18V12ZM8 20V12H0V18C0 19.1046 0.895431 20 2 20H8Z" fill="#EF264D"/>
</g>
</svg>

<svg width="28" height="20" fill="none" xmlns="http://www.w3.org/2000/svg"><rect x=".25" y=".25" width="27.5" height="19.5" rx="1.75" fill="#fff" stroke="#F5F5F5" stroke-width=".5"/><mask id="a" style="mask-type:alpha" maskUnits="userSpaceOnUse" x="0" y="0" width="28" height="20"><rect x=".25" y=".25" width="27.5" height="19.5" rx="1.75" fill="#fff" stroke="#fff" stroke-width=".5"/></mask><g mask="url(#a)"><path fill-rule="evenodd" clip-rule="evenodd" d="M2 0a2 2 0 0 0-2 2v6h8V0H2Zm10 0v8h16V2a2 2 0 0 0-2-2H12Zm16 12H12v8h14a2 2 0 0 0 2-2v-6ZM8 20v-8H0v6a2 2 0 0 0 2 2h6Z" fill="#EF264D"/></g></svg>
